vectrex/_inc/system.svg

<svg xmlns="http://www.w3.org/2000/svg"><g fill="#fff"><path d="m254.61 81.768c-15.747 15.753-15.747 41.283 0 57.039 15.753 15.744 41.283 15.744 57.036 0 13.62-13.623 15.456-34.56 5.523-50.157l-21.696 21.696c-.018 3.144-1.218 6.279-3.612 8.673-4.824 4.815-12.642 4.815-17.466 0-4.815-4.824-4.815-12.639 0-17.463 4.824-4.818 12.642-4.818 17.466 0l.369.393 19.797-19.794-.378-.387c-15.756-15.744-41.286-15.744-57.039 0z"/><path d="m97.473 150.453 97.473-110.955h-40.674l-62.304 63.432c-1.902 1.935-4.989 1.935-6.891 0-1.899-1.932-1.899-5.079 0-7.02l55.416-56.412h-140.493z"/><path d="m532.485 110.106-33.756 39.687h27.582l26.28-26.754c1.524-1.551 3.993-1.551 5.517 0 1.521 1.545 1.521 4.056 0 5.613l-20.766 21.147h62.658l-33.753-39.69 33.753-39.687h-27.582l-26.28 26.757c-1.524 1.557-3.99 1.557-5.514 0-1.524-1.548-1.524-4.056 0-5.613l20.766-21.144h-62.661z"/><path d="m377.127 70.419v79.377h25.332v-51.591h19.209l23.628-27.786h-27.579l-26.289 26.757c-1.515 1.557-3.984 1.557-5.505 0-1.524-1.545-1.524-4.056 0-5.613l20.763-21.144z"/><path d="m358.239 70.758h15.309l25.287-26.133h-40.593v-44.625l-61.752 70.758h27.006l18.492-17.178c1.524-1.548 3.993-1.548 5.505 0 1.524 1.557 1.524 4.065 0 5.616l-14.583 14.856v75.744h25.335v-79.038z"/><path d="m168.189 81.768c-15.744 15.753-15.744 41.283 0 57.039 15.753 15.744 41.283 15.744 57.036 0 13.623-13.623 15.459-34.56 5.523-50.157l-21.696 21.696c-.015 3.144-1.218 6.279-3.612 8.673-3.96 3.951-9.927 4.656-14.601 2.133l36.774-36.774c-.633-.756-4.683-4.773-5.901-5.736-15.828-12.543-38.898-11.499-53.523 3.126zm17.118 33.276c-1.866-4.476-.978-9.843 2.667-13.488 3.648-3.645 9.015-4.536 13.491-2.667z"/><path d="m443.085 81.768c-15.744 15.753-15.744 41.283 0 57.039 15.756 15.744 41.286 15.744 57.039 0 13.623-13.623 15.459-34.56 5.526-50.157l-21.696 21.696c-.018 3.144-1.215 6.279-3.612 8.673-3.957 3.951-9.927 4.656-14.601 2.133l36.774-36.774c-.636-.756-4.686-4.773-5.901-5.736-15.831-12.543-38.901-11.499-53.529 3.126zm17.121 33.276c-1.869-4.476-.981-9.843 2.667-13.488 3.645-3.645 9.015-4.536 13.488-2.667z"/></g></svg>

<?xml version="1.0" encoding="utf-8"?>
<svg version="1.1" xmlns="http://www.w3.org/2000/svg">
  <g>
    <path d="M 254.61 81.768 C 238.863 97.521 238.863 123.051 254.61 138.807 C 270.363 154.551 295.893 154.551 311.646 138.807 C 325.266 125.184 327.102 104.247 317.169 88.65 L 295.473 110.346 C 295.455 113.49 294.255 116.625 291.861 119.019 C 287.037 123.834 279.219 123.834 274.395 119.019 C 269.58 114.195 269.58 106.38 274.395 101.556 C 279.219 96.738 287.037 96.738 291.861 101.556 L 292.23 101.949 L 312.027 82.155 L 311.649 81.768 C 295.893 66.024 270.363 66.024 254.61 81.768 Z" id="path3" style="fill-opacity: 1; fill: rgb(255, 255, 255);"/>
    <path d="M 97.473 150.453 L 194.946 39.498 L 154.272 39.498 L 91.968 102.93 C 90.066 104.865 86.979 104.865 85.077 102.93 C 83.178 100.998 83.178 97.851 85.077 95.91 L 140.493 39.498 L 0 39.498 L 97.473 150.453 Z" id="path5" style="fill-opacity: 1; fill: rgb(255, 255, 255);"/>
    <path d="M 532.485 110.106 L 498.729 149.793 L 526.311 149.793 L 552.591 123.039 C 554.115 121.488 556.584 121.488 558.108 123.039 C 559.629 124.584 559.629 127.095 558.108 128.652 L 537.342 149.799 L 600 149.799 L 566.247 110.109 L 600 70.422 L 572.418 70.422 L 546.138 97.179 C 544.614 98.736 542.148 98.736 540.624 97.179 C 539.1 95.631 539.1 93.123 540.624 91.566 L 561.39 70.422 L 498.729 70.422 L 532.485 110.106 Z" id="path7" style="fill-opacity: 1; fill: rgb(255, 255, 255);"/>
    <path d="M 377.127 70.419 L 377.127 149.796 L 402.459 149.796 L 402.459 98.205 L 421.668 98.205 L 445.296 70.419 L 417.717 70.419 L 391.428 97.176 C 389.913 98.733 387.444 98.733 385.923 97.176 C 384.399 95.631 384.399 93.12 385.923 91.563 L 406.686 70.419 L 377.127 70.419 L 377.127 70.419 Z" id="path9" style="fill-opacity: 1; fill: rgb(255, 255, 255);"/>
    <path d="M 358.239 70.758 L 373.548 70.758 L 398.835 44.625 L 358.242 44.625 L 358.242 0 L 296.49 70.758 L 323.496 70.758 L 341.988 53.58 C 343.512 52.032 345.981 52.032 347.493 53.58 C 349.017 55.137 349.017 57.645 347.493 59.196 L 332.91 74.052 L 332.91 149.796 L 358.245 149.796 L 358.245 70.758 L 358.239 70.758 Z" id="path11" style="fill-opacity: 1; fill: rgb(255, 255, 255);"/>
    <path d="M 168.189 81.768 C 152.445 97.521 152.445 123.051 168.189 138.807 C 183.942 154.551 209.472 154.551 225.225 138.807 C 238.848 125.184 240.684 104.247 230.748 88.65 L 209.052 110.346 C 209.037 113.49 207.834 116.625 205.44 119.019 C 201.48 122.97 195.513 123.675 190.839 121.152 L 227.613 84.378 C 226.98 83.622 222.93 79.605 221.712 78.642 C 205.884 66.099 182.814 67.143 168.189 81.768 Z M 185.307 115.044 C 183.441 110.568 184.329 105.201 187.974 101.556 C 191.622 97.911 196.989 97.02 201.465 98.889 L 185.307 115.044 Z" id="path13" style="fill-opacity: 1; fill: rgb(255, 255, 255);"/>
    <path d="M 443.085 81.768 C 427.341 97.521 427.341 123.051 443.085 138.807 C 458.841 154.551 484.371 154.551 500.124 138.807 C 513.747 125.184 515.583 104.247 505.65 88.65 L 483.954 110.346 C 483.936 113.49 482.739 116.625 480.342 119.019 C 476.385 122.97 470.415 123.675 465.741 121.152 L 502.515 84.378 C 501.879 83.622 497.829 79.605 496.614 78.642 C 480.783 66.099 457.713 67.143 443.085 81.768 Z M 460.206 115.044 C 458.337 110.568 459.225 105.201 462.873 101.556 C 466.518 97.911 471.888 97.02 476.361 98.889 L 460.206 115.044 Z" id="path15" style="fill-opacity: 1; fill: rgb(255, 255, 255);"/>
  </g>
</svg>
